X: 154
T: No_236_Song_to_a_Little_Child.krn
N: Derived from No_236_Song_to_a_Little_Child.krn
%%abc-version 2.0
%%abcx-abcm2ps-target-version 5.9.1 (29 Sep 2008)
%%abc-creator hum2abc beta
%%abcx-conversion-date 2019/03/15 08:38:45
%%humdrum-veritas 379015925
%%humdrum-veritas-data 2937160100
%%linebreak <none>
%%barnumbers 0
L: 1/8
M: 2/4
K: Eb clef=treble
[K:clef=treble][M:2/4](GF EB,) | 
G2z2 | 
GF EC- | 
C3z | 
G2(3FEC | 
F2z A | 
F3/G/ FE | 
C3z ||  
[M:3/4]GF/E/G2G z/ A/ | 
G(3:2:2F/EC2z2 |]  



